X:7
T:Constant Billy
M:6/8
A:Bledington
C:A.(AB)4
P:(AB)2
%abc2id:chwalshaw@gmail.com:000000007
R:Jig
R:Morris dance
%abc2 #list folder 2/list subfolder 2.1/test list 2.1.2:002
%abc2 #list folder 2/list subfolder 2.1/test list 2.1.3:002
%abc2 #test list 1:002
%abc2 #test list 1:005
%abc2 #test list 1:008
%abc2 #test list 2:006
K:G
P:A
|:D | G2d BGB | c2A FED | BAG EFG | DEF G2 :|
P:B
c | Bcd e2e | ABc d2d | Bcd e2e | ABc def | 
g2d BGB | c2A FED | BAG EFG | DEF G2 |]
